X:503
T:Ederlezi
Z:Jack Campin, http://www.campin.me.uk/
F:Jack Campin's Nine-Note Tunebook
% last edit 03-02-2013
G:Serbian/Bulgarian/Turkish Roma spring festival song
M:4/4
L:1/8
K:DMin
A/B/c/B/ AG G3  A|F8       |G4    G3  E|F3  G E2 D2|
G4          G3  E|F3G E2 D2|F3  E G3  E|D8        :|
A6             GF|G8       |F2 A2 GF ED|F2 EF A2 G2|
F2       EF A2 G2|d3c B2 A2|A2 cB A2 G2|F3  E G3 E |D8:|

